_includes/icons/color-flow-chart.svg

<svg fill="#666" height="50" viewBox="0 0 48 48" width="50" xmlns="http://www.w3.org/2000/svg"><path d="m35 36h4v-14h-13v-9h-4v9h-13v14h4v-10h9v10h4v-10h9z" fill="#cfd8dc"/><path d="m17 6h14v10h-14z" fill="#3f51b5"/><g fill="#00bcd4"><path d="m32 32h10v10h-10z"/><path d="m6 32h10v10h-10z"/><path d="m19 32h10v10h-10z"/></g></svg>

<svg xmlns="http://www.w3.org/2000/svg" viewBox="0 0 48 48" width="50" height="50" fill="#666"><path d="M 35 36 L 39 36 L 39 22 L 26 22 L 26 13 L 22 13 L 22 22 L 9 22 L 9 36 L 13 36 L 13 26 L 22 26 L 22 36 L 26 36 L 26 26 L 35 26 Z" fill="#cfd8dc"/><path d="M 17 6 L 31 6 L 31 16 L 17 16 Z" fill="#3f51b5"/><path d="M 32 32 L 42 32 L 42 42 L 32 42 Z" fill="#00bcd4"/><path d="M 6 32 L 16 32 L 16 42 L 6 42 Z" fill="#00bcd4"/><path d="M 19 32 L 29 32 L 29 42 L 19 42 Z" fill="#00bcd4"/></svg>
